src/img/slider-arrow-next.svg

<svg width="71" height="71" viewBox="0 0 71 71" fill="none" xmlns="http://www.w3.org/2000/svg">
<g id="Group 277131314">
<g id="Group 277131282">
<g id="Rectangle 137" filter="url(#filter0_i_540_1022)">
<rect width="70.546" height="70.546" rx="35.273" fill="#E95229"/>
</g>
</g>
<path id="Arrow 1" d="M47.0601 35.5157C47.5483 35.0276 47.5483 34.2361 47.0601 33.748L39.1052 25.793C38.617 25.3048 37.8256 25.3048 37.3374 25.793C36.8492 26.2812 36.8492 27.0726 37.3374 27.5608L44.4085 34.6318L37.3374 41.7029C36.8492 42.1911 36.8492 42.9825 37.3374 43.4707C37.8256 43.9588 38.617 43.9588 39.1052 43.4707L47.0601 35.5157ZM24.3711 35.8818H46.1762V33.3818H24.3711V35.8818Z" fill="white"/>
</g>
<defs>
<filter id="filter0_i_540_1022" x="0" y="0" width="70.5459" height="70.5459" filterUnits="userSpaceOnUse" color-interpolation-filters="sRGB">
<feFlood flood-opacity="0" result="BackgroundImageFix"/>
<feBlend mode="normal" in="SourceGraphic" in2="BackgroundImageFix" result="shape"/>
<feColorMatrix in="SourceAlpha" type="matrix" values="0 0 0 0 0 0 0 0 0 0 0 0 0 0 0 0 0 0 127 0" result="hardAlpha"/>
<feOffset/>
<feGaussianBlur stdDeviation="15"/>
<feComposite in2="hardAlpha" operator="arithmetic" k2="-1" k3="1"/>
<feColorMatrix type="matrix" values="0 0 0 0 1 0 0 0 0 1 0 0 0 0 1 0 0 0 0.4 0"/>
<feBlend mode="normal" in2="shape" result="effect1_innerShadow_540_1022"/>
</filter>
</defs>
</svg>

<svg width="71" height="71" fill="none" xmlns="http://www.w3.org/2000/svg"><g id="Group 277131314"><g id="Group 277131282"><g id="Rectangle 137" filter="url(#filter0_i_540_1022)"><rect width="70.546" height="70.546" rx="35.273" fill="#E95229"/></g></g><path id="Arrow 1" d="M47.06 35.516a1.25 1.25 0 000-1.768l-7.955-7.955a1.25 1.25 0 10-1.768 1.768l7.071 7.07-7.07 7.072a1.25 1.25 0 101.767 1.768l7.955-7.955zm-22.689.366h21.805v-2.5H24.371v2.5z" fill="#fff"/></g><defs><filter id="filter0_i_540_1022" x="0" y="0" width="70.546" height="70.546" filterUnits="userSpaceOnUse" color-interpolation-filters="sRGB"><feFlood flood-opacity="0" result="BackgroundImageFix"/><feBlend in="SourceGraphic" in2="BackgroundImageFix" result="shape"/><feColorMatrix in="SourceAlpha" values="0 0 0 0 0 0 0 0 0 0 0 0 0 0 0 0 0 0 127 0" result="hardAlpha"/><feOffset/><feGaussianBlur stdDeviation="15"/><feComposite in2="hardAlpha" operator="arithmetic" k2="-1" k3="1"/><feColorMatrix values="0 0 0 0 1 0 0 0 0 1 0 0 0 0 1 0 0 0 0.4 0"/><feBlend in2="shape" result="effect1_innerShadow_540_1022"/></filter></defs></svg>
